src/assets/img/console/password.svg

<?xml version="1.0" encoding="UTF-8"?>
<svg width="17px" height="19px" viewBox="0 0 17 19" version="1.1" xmlns="http://www.w3.org/2000/svg" xmlns:xlink="http://www.w3.org/1999/xlink">
    <!-- Generator: Sketch 55.2 (78181) - https://sketchapp.com -->
    <title>密码</title>
    <desc>Created with Sketch.</desc>
    <defs>
        <linearGradient x1="25.7892496%" y1="88.0477863%" x2="63.4914954%" y2="25.4977915%" id="linearGradient-1">
            <stop stop-color="#75ADFF" offset="0%"></stop>
            <stop stop-color="#4666FF" offset="100%"></stop>
        </linearGradient>
    </defs>
    <g id="页面1" stroke="none" stroke-width="1" fill="none" fill-rule="evenodd">
        <g id="u006修改密码" transform="translate(-600.000000, -208.000000)">
            <g id="编组-4" transform="translate(471.000000, 170.000000)">
                <g id="密码" transform="translate(124.000000, 34.000000)">
                    <g>
                        <rect id="矩形" fill="#000000" fill-rule="nonzero" opacity="0" x="0" y="0" width="28" height="28"></rect>
                        <path d="M10.0584137,12.6363636 C11.0899593,13.1538977 12.2599691,13.4460227 13.5,13.4460227 C14.7400309,13.4460227 15.9100407,13.1538977 16.9415863,12.6363636 L22,12.6363636 L22,22.1363636 C22,22.6133338 21.6033241,23 21.1140065,23 L5,23 L5,13.5 C5,13.0230298 5.3966759,12.6363636 5.88599349,12.6363636 L10.0584137,12.6363636 Z M6.41205212,10.9090909 C6.41205212,7.09330256 9.5854316,4 13.5,4 C17.4145684,4 20.5879479,7.09330256 20.5879479,10.9090909 L17.9299674,10.9090909 C17.9299674,8.52421307 15.9466156,6.59090909 13.5,6.59090909 C11.0533844,6.59090909 9.07003257,8.52421307 9.07003257,10.9090909 L6.41205212,10.9090909 Z" id="形状" fill="url(#linearGradient-1)"></path>
                    </g>
                </g>
            </g>
        </g>
    </g>
</svg>

<svg width="17" height="19" viewBox="0 0 17 19" xmlns="http://www.w3.org/2000/svg"><defs><linearGradient x1="25.789%" y1="88.048%" x2="63.491%" y2="25.498%" id="a"><stop stop-color="#75ADFF" offset="0%"/><stop stop-color="#4666FF" offset="100%"/></linearGradient></defs><path d="M10.058 12.636a7.656 7.656 0 0 0 3.442.81c1.24 0 2.41-.292 3.442-.81H22v9.5a.875.875 0 0 1-.886.864H5v-9.5c0-.477.397-.864.886-.864h4.172zM6.412 10.91C6.412 7.093 9.585 4 13.5 4s7.088 3.093 7.088 6.91H17.93c0-2.386-1.983-4.32-4.43-4.32-2.447 0-4.43 1.934-4.43 4.32H6.412z" fill="url(#a)" transform="translate(-5 -4)" fill-rule="evenodd"/></svg>
